!!!!SEGMENT: pl-wtm--r-1589--002_stefani-jozef--vesperae-de-apostolis-antiphona.krn
!!!cenid: 18xx:2350
!!!COM: Stefani, Józef
!!!COM-rismid: pe30024097
!!!CDT: 1800/04/16-1876/03/19
!!!CNT: Polish
!!!OPR: Vesperae de Apostolis
!!!OTL: Antiphona
!!!OMV: 002
!!!PDT:
!!!AGN: Sacred; Vespers
!!!SMS-siglum: PL-Wtm
!!!SMS-shelfmark: R 1589
!!!SMS-shelfwork: 001-002 M
!!!SMS-variant:
!!!SMS-altvar:
!!!NIFC-rismid: 1001115607
!!!URL-scan: http://repozytorium.nifc.pl/skany/pl-wtm-nut--r1589
!!!ONB-nifc: UWAGA: części: 5 Antyfon (001-005) i Magnificat (006)
!!!AIN: 1 empty 2 tenor
!!!key:
**kern	**text	**dynam	**kern	**kern	**text	**dynam
*part3	*part3	*part3	*part2	*part1	*part1	*part1
*staff3	*staff3	*	*staff2	*staff1	*staff1	*
*Iempty	*	*	*Itenor	*Itenor	*	*
*I"[Basso]	*	*	*I"[Tenore 2]	*I"[Tenore 1]	*	*
*clefF4	*	*	*clefC4	*clefC4	*	*
*k[b-e-a-]	*	*	*k[b-e-a-]	*k[b-e-a-]	*	*
*E-:	*	*	*E-:	*E-:	*	*
*M4/4	*	*	*M4/4	*M4/4	*	*
*met(c)	*	*	*met(c)	*met(c)	*	*
*all\right	*	*	*all\right	*all\right	*	*
!	!	!	!	!LO:TX:b:i:t=dolce	!	!
!LO:TX:a:i:t=dolce	!	!	!	!LO:TX:a:t=Antiphona IIa	!	!
4B-\	Ma-	.	4B-\	4B-\	Ma-	.
=1	=1	=1	=1	=1	=1	=1
4.E-\	-jo-	.	4.G/	4.e-\	-jo-	.
8E-\	-rem	.	8G/	8B-\	-rem	.
.	.	.	(8qB-/	(8qd/	.	.
4E-\	cha-	.	4A-/)	4c\)	cha-	.
4E-\	-ri-	.	4F/	4A-\	-ri-	.
=2	=2	=2	=2	=2	=2	=2
*2\right	*	*	*	*2\right	*	*
2E-\	-ta-	.	2G/	2B-\	-ta-	.
4E-\	-tem	.	4E-/	4G/	-tem	.
[4E-\	ne-	.	((8G/L	((8e-\L	ne-	.
.	.	.	8B-/J)	8d\J)	.	.
=3	=3	=3	=3	=3	=3	=3
2.E-\]	.	.	4A-/	4c\	.	.
.	.	.	4G/	4B-\	.	.
.	.	.	4F/)	4A-\)	.	.
4D\	-mo	.	4F/	4B-\	-mo	.
!!LO:PB:g=original
=4	=4	=4	=4	=4	=4	=4
2E-\	ha-	.	2E-/	2G/	ha-	.
4BB-/	-bet,	<	4D/	4F/	-bet,	<
4BB-/	ut	[[	4B-\	4B-\	ut	[[
=5	=5	=5	=5	=5	=5	=5
4.C/	a-	f	4.G/	4.e-\	a-	f
8C/	-ni-	.	8G/	8e-\	-ni-	.
[4F\	-mam	.	[4An/	(4f\	-mam	.
4F\]	.	.	4A/]	4e-\)	.	.
=6	=6	=6	=6	=6	=6	=6
*	*	*	*2\right	*	*	*
(4G\	su-	.	2B-\	2d\	su-	.
4F\	.	.	.	.	.	.
4E-)\	-am	.	4G/	4c\	-am	.
4En\	po-	.	4G/	4c#X^\	po-	.
=7	=7	=7	=7	=7	=7	=7
4F\	-nat	.	4B-\	4d\	-nat	.
8F\	quis	.	8An\	8cn\	quis	.
8F\	pro	.	8B-\	8d\	pro	.
4F\	a-	.	8c\L	8e-\L	a-	.
.	.	.	8A\J	8c\J	.	.
8F\	-mi-	.	8A\	8f\	-mi-	.
8F\	-cis	.	8A\	8e-\	-cis	.
!!LO:LB:g=original
=8	=8	=8	=8	=8	=8	=8
2BB-/	su-	.	2B-\	2d\	su-	.
4BB-/	-is.	.	4B-\	4d\	-is.	.
!LO:TX:a:i:t=dolce	!	!	!	!LO:TX:a:i:t=dolce	!	!
4B-\	Ma-	.	4B-\	4B-\	Ma-	.
=9	=9	=9	=9	=9	=9	=9
4.E-\	-jo-	.	4.G/	4.e-\	-jo-	.
8E-\	-rem	.	8G/	8B-\	-rem	.
4D\	cha-	.	4B-\	4f\	cha-	.
4D\	-ri-	.	4B-\	4f\	-ri-	.
=10	=10	=10	=10	=10	=10	=10
2E-\	-ta-	.	2B-\	2g\	-ta-	.
4E-\	-tem	.	4G\	4e-\	-tem	.
(>4AA-/	ne-	.	(4A-\	((8c\L	ne-	.
.	.	.	.	8f\J)	.	.
=11	=11	=11	=11	=11	=11	=11
*	*	*	*^	*	*	*
2.BB-/)	.	.	2G/	2ryy	(4B-\	.	.
.	.	.	.	.	4e-\	.	.
.	.	.	4A-/)	4F\	(8e-\L	.	.
.	.	.	.	.	8d\J)))	.	.
4BB-/	-mo	.	4A-/	4F\	(8c\L	-mo	.
.	.	.	.	.	8d\J)	.	.
*	*	*	*v	*v	*	*	*
!!LO:LB:g=original
=12	=12	=12	=12	=12	=12	=12
2BBn/	ha-	>	2A-/	2f\	ha-	>
4C/	-bet,	]	4G/	4e-\	-bet,	]
(4D-X\	ne-	f	(4G/	[4e-\	ne-	f
=13	=13	=13	=13	=13	=13	=13
2.C/)	.	.	2A-/)	2e-\]	.	.
.	.	.	2E-/	2An^\	-mo	.
4C-X^>/	-mo	.	.	.	.	.
=14	=14	=14	=14	=14	=14	=14
*	*	*	*^	*	*	*
2BB-^>/	ne-	.	2G/	2E-\	2B-^\	ne-	.
2BB-^>/	-mo	.	2B-/	2G\	2e-^\	-mo	.
=15	=15	=15	=15	=15	=15	=15	=15
(2..BB-/	ha-	.	(2..A-/	(2..F\	(4e-\	ha-	.
.	.	.	.	.	8d\L	.	.
.	.	.	.	.	8c\J	.	.
.	.	.	.	.	4.d\	.	.
8E-\	.	.	8G/)	8E-\)	8e-\)	.	.
=16	=16	=16	=16	=16	=16	=16	=16
2E-\)	-bet,	.	2G/	2E-\	2e-\	-bet,	.
4r	.	.	4r	4ryy	4r	.	.
*	*	*	*v	*v	*	*	*
==	==	==	==	==	==	==
*-	*-	*-	*-	*-	*-	*-
!!!system-decoration: {s1,s2,s3}
!!!RDF**kern: > = above
!!!ENC: Marta Lawrence
!!!END: 2021-06-14
!!!ENC: Anastazja Marusiak
!!!END: 2021-06-04
